app/assets/images/static_page_top_bg.svg

<svg width="1440" height="1006" fill="none" xmlns="http://www.w3.org/2000/svg"><g opacity=".147"><path fill="none" d="M-390 0h1862v1006H-390z"/><g opacity=".7"><path fill="none" d="M-390 289h570v717h-570z"/><path fill="none" d="M-389.032 289.022h568.77v716.245h-568.77z"/><path d="M-235.691 299.199a7.999 7.999 0 0 1 9.797-5.657l375.755 100.683a8 8 0 0 1 5.657 9.798L6.698 959.428a8.001 8.001 0 0 1-9.799 5.657l-375.754-100.684a8 8 0 0 1-5.657-9.797l148.821-555.405z" stroke="#fff" stroke-width="4"/><path d="M-215.991 334.861a8 8 0 0 1 9.798-5.657l375.754 100.683a8 8 0 0 1 5.657 9.798L26.398 995.09a8.005 8.005 0 0 1-9.798 5.66l-375.755-100.686a8.001 8.001 0 0 1-5.657-9.798l148.821-555.405z" stroke="#fff" stroke-width="4"/></g><g opacity=".7"><path fill="none" d="M85 559h117v335H85z"/><path d="M171.684 569.818a8 8 0 0 1 9.798-5.657l10.177 2.727a8 8 0 0 1 5.657 9.798l-78.655 293.545a7.774 7.774 0 0 1-2.284 3.763c-2.38 2.153-6.368 5.7-9.985 8.638-1.815 1.474-3.497 2.762-4.818 3.641-.488.324-.897.573-1.225.75-.193-.316-.42-.734-.675-1.257-.697-1.421-1.498-3.377-2.32-5.559-1.638-4.352-3.286-9.413-4.25-12.457a7.767 7.767 0 0 1-.082-4.359l78.662-293.573zM99.729 887.306c-.012.002-.01.001.006-.002l-.006.002z" stroke="#fff" stroke-width="4"/></g><path fill="none" d="M160 0h354v276H160z"/><path d="M242.621 10.206a8 8 0 0 1 9.798-5.657l250.514 67.125a8 8 0 0 1 5.657 9.798L464.175 247.23a8 8 0 0 1-9.798 5.656l-250.514-67.125a8 8 0 0 1-5.657-9.798l44.415-165.757z" stroke="#fff" stroke-width="4"/><path d="M209.783 28.042a8 8 0 0 1 9.798-5.657L470.095 89.51a8 8 0 0 1 5.656 9.798l-44.414 165.758a8.002 8.002 0 0 1-9.798 5.657l-250.514-67.125a8 8 0 0 1-5.657-9.798l44.415-165.758z" stroke="#fff" stroke-width="4"/><g opacity=".4"><path fill="none" d="M885 727h354v276H885z"/><path d="M967.621 737.206a8 8 0 0 1 9.798-5.657l250.511 67.125a8.003 8.003 0 0 1 5.66 9.798l-44.41 165.758c-1.15 4.267-5.54 6.8-9.8 5.656l-250.517-67.125a8 8 0 0 1-5.657-9.798l44.415-165.757z" stroke="#fff" stroke-width="4"/><path d="M934.783 755.042a8 8 0 0 1 9.798-5.657l250.509 67.125a8.003 8.003 0 0 1 5.66 9.798l-44.41 165.758c-1.15 4.267-5.53 6.8-9.8 5.657l-250.515-67.125a8 8 0 0 1-5.657-9.798l44.415-165.758z" stroke="#fff" stroke-width="4"/></g><path fill="none" d="M1201 276h271v372h-271z"/><path d="M1287.68 286.227c1.15-4.268 5.53-6.801 9.8-5.657l164.02 43.949a8.003 8.003 0 0 1 5.66 9.798l-81.25 303.233c-1.15 4.267-5.53 6.8-9.8 5.656l-164.02-43.949a8.003 8.003 0 0 1-5.66-9.798l81.25-303.232z" stroke="#fff" stroke-width="4"/><path d="M1282.89 304.108c1.14-4.267 5.53-6.8 9.8-5.657l164.02 43.949c4.26 1.144 6.8 5.531 5.65 9.798l-67.87 253.301c-1.14 4.268-5.53 6.801-9.8 5.657l-164.02-43.949c-4.26-1.143-6.8-5.53-5.65-9.798l67.87-253.301z" stroke="#fff" stroke-width="4"/><path fill="none" d="M1246.04 336.153h204.54v231.93h-204.54z"/><path d="M1332.2 346.33c1.14-4.268 5.53-6.8 9.8-5.657l98.41 26.369c4.26 1.143 6.8 5.53 5.65 9.798l-13.19 49.257c-1.15 4.268-5.54 6.801-9.8 5.657l-98.41-26.368a8.003 8.003 0 0 1-5.66-9.798l13.2-49.258zM1263.76 414.906c1.15-4.268 5.53-6.801 9.8-5.657l98.41 26.368a8.003 8.003 0 0 1 5.66 9.798l-13.2 49.258c-1.15 4.268-5.53 6.8-9.8 5.657l-98.41-26.369a8.003 8.003 0 0 1-5.66-9.798l13.2-49.257zM1320.39 513.489c1.14-4.268 5.53-6.8 9.8-5.657l67.08 17.976a8.003 8.003 0 0 1 5.66 9.798l-5.97 22.3c-1.15 4.268-5.53 6.8-9.8 5.657l-67.09-17.976a7.989 7.989 0 0 1-5.65-9.798l5.97-22.3z" stroke="#fff" stroke-width="4"/><path fill="none" d="M1333.25 524h49.688v23.485h-49.688z"/><path fill-rule="evenodd" clip-rule="evenodd" d="M1340.28 538.091c3.88 0 7.03-3.154 7.03-7.046 0-3.891-3.15-7.045-7.03-7.045-3.88 0-7.03 3.154-7.03 7.045 0 3.892 3.15 7.046 7.03 7.046z" fill="#fff" fill-opacity=".2"/><path fill-rule="evenodd" clip-rule="evenodd" d="M1358.09 542.788c3.89 0 7.03-3.154 7.03-7.046 0-3.891-3.14-7.045-7.03-7.045-3.88 0-7.03 3.154-7.03 7.045 0 3.892 3.15 7.046 7.03 7.046z" fill="#fff" fill-opacity=".6"/><path fill-rule="evenodd" clip-rule="evenodd" d="M1375.91 547.485c3.88 0 7.03-3.154 7.03-7.046 0-3.891-3.15-7.045-7.03-7.045-3.89 0-7.03 3.154-7.03 7.045 0 3.892 3.14 7.046 7.03 7.046z" fill="#fff"/></g></svg>

<svg width="1440" height="1006" viewBox="0 0 1440 1006" fill="none" xmlns="http://www.w3.org/2000/svg">
<g opacity="0.147">
<rect width="1862" height="1006" fill="black" fill-opacity="0" transform="translate(-390)"/>
<g opacity="0.7">
<rect width="570" height="717" fill="black" fill-opacity="0" transform="translate(-390 289)"/>
<rect width="568.77" height="716.245" fill="black" fill-opacity="0" transform="translate(-389.032 289.022)"/>
<path d="M-235.691 299.199C-234.548 294.931 -230.161 292.398 -225.894 293.542L149.861 394.225C154.129 395.368 156.661 399.755 155.518 404.023L6.69739 959.428C5.55385 963.695 1.16715 966.228 -3.10057 965.085L-378.855 864.401C-383.123 863.258 -385.655 858.871 -384.512 854.604L-235.691 299.199Z" stroke="white" stroke-width="4"/>
<path d="M-215.991 334.861C-214.848 330.593 -210.461 328.061 -206.193 329.204L169.561 429.887C173.829 431.031 176.361 435.417 175.218 439.685L26.3976 995.09C25.254 999.358 20.8673 1001.89 16.5996 1000.75L-359.155 900.064C-363.422 898.92 -365.955 894.534 -364.812 890.266L-215.991 334.861Z" stroke="white" stroke-width="4"/>
</g>
<g opacity="0.7">
<rect width="117" height="335" fill="black" fill-opacity="0" transform="translate(85 559)"/>
<path d="M171.684 569.818C172.828 565.55 177.215 563.017 181.482 564.161L191.659 566.888C195.927 568.031 198.459 572.418 197.316 576.686L118.661 870.231C118.27 871.69 117.481 872.995 116.377 873.994C113.997 876.147 110.009 879.694 106.392 882.632C104.577 884.106 102.895 885.394 101.574 886.273C101.086 886.597 100.677 886.846 100.349 887.023C100.156 886.707 99.9298 886.289 99.6738 885.766C98.977 884.345 98.1759 882.389 97.3543 880.207C95.7164 875.855 94.0681 870.794 93.1048 867.75C92.66 866.344 92.6344 864.836 93.0215 863.391L171.684 569.818ZM99.7286 887.306C99.7168 887.308 99.7197 887.307 99.7351 887.304C99.7323 887.305 99.7301 887.305 99.7286 887.306Z" stroke="white" stroke-width="4"/>
</g>
<rect width="354" height="276" fill="black" fill-opacity="0" transform="translate(160)"/>
<path d="M242.621 10.2057C243.765 5.93796 248.151 3.4053 252.419 4.54884L502.933 71.6738C507.201 72.8174 509.733 77.2041 508.59 81.4718L464.175 247.23C463.032 251.497 458.645 254.03 454.377 252.886L203.863 185.761C199.595 184.618 197.063 180.231 198.206 175.963L242.621 10.2057Z" stroke="white" stroke-width="4"/>
<path d="M209.783 28.0418C210.926 23.7741 215.313 21.2415 219.581 22.385L470.095 89.51C474.362 90.6535 476.895 95.0402 475.751 99.308L431.337 265.066C430.193 269.333 425.806 271.866 421.539 270.723L171.025 203.598C166.757 202.454 164.224 198.067 165.368 193.8L209.783 28.0418Z" stroke="white" stroke-width="4"/>
<g opacity="0.4">
<rect width="354" height="276" fill="black" fill-opacity="0" transform="translate(885 727)"/>
<path d="M967.621 737.206C968.765 732.938 973.151 730.405 977.419 731.549L1227.93 798.674C1232.2 799.817 1234.73 804.204 1233.59 808.472L1189.18 974.23C1188.03 978.497 1183.64 981.03 1179.38 979.886L928.863 912.761C924.595 911.618 922.063 907.231 923.206 902.963L967.621 737.206Z" stroke="white" stroke-width="4"/>
<path d="M934.783 755.042C935.926 750.774 940.313 748.241 944.581 749.385L1195.09 816.51C1199.36 817.654 1201.89 822.04 1200.75 826.308L1156.34 992.066C1155.19 996.333 1150.81 998.866 1146.54 997.723L896.025 930.598C891.757 929.454 889.224 925.067 890.368 920.8L934.783 755.042Z" stroke="white" stroke-width="4"/>
</g>
<rect width="271" height="372" fill="black" fill-opacity="0" transform="translate(1201 276)"/>
<path d="M1287.68 286.227C1288.83 281.959 1293.21 279.426 1297.48 280.57L1461.5 324.519C1465.77 325.662 1468.3 330.049 1467.16 334.317L1385.91 637.55C1384.76 641.817 1380.38 644.35 1376.11 643.206L1212.09 599.257C1207.82 598.114 1205.29 593.727 1206.43 589.459L1287.68 286.227Z" stroke="white" stroke-width="4"/>
<path d="M1282.89 304.108C1284.03 299.841 1288.42 297.308 1292.69 298.451L1456.71 342.4C1460.97 343.544 1463.51 347.931 1462.36 352.198L1394.49 605.499C1393.35 609.767 1388.96 612.3 1384.69 611.156L1220.67 567.207C1216.41 566.064 1213.87 561.677 1215.02 557.409L1282.89 304.108Z" stroke="white" stroke-width="4"/>
<rect width="204.54" height="231.93" fill="black" fill-opacity="0" transform="translate(1246.04 336.153)"/>
<path d="M1332.2 346.33C1333.34 342.062 1337.73 339.53 1342 340.673L1440.41 367.042C1444.67 368.185 1447.21 372.572 1446.06 376.84L1432.87 426.097C1431.72 430.365 1427.33 432.898 1423.07 431.754L1324.66 405.386C1320.39 404.242 1317.86 399.855 1319 395.588L1332.2 346.33Z" stroke="white" stroke-width="4"/>
<path d="M1263.76 414.906C1264.91 410.638 1269.29 408.105 1273.56 409.249L1371.97 435.617C1376.24 436.761 1378.77 441.148 1377.63 445.415L1364.43 494.673C1363.28 498.941 1358.9 501.473 1354.63 500.33L1256.22 473.961C1251.95 472.818 1249.42 468.431 1250.56 464.163L1263.76 414.906Z" stroke="white" stroke-width="4"/>
<path d="M1320.39 513.489C1321.53 509.221 1325.92 506.689 1330.19 507.832L1397.27 525.808C1401.54 526.951 1404.07 531.338 1402.93 535.606L1396.96 557.906C1395.81 562.174 1391.43 564.706 1387.16 563.563L1320.07 545.587C1315.8 544.444 1313.27 540.057 1314.42 535.789L1320.39 513.489Z" stroke="white" stroke-width="4"/>
<rect width="49.6875" height="23.4848" fill="black" fill-opacity="0" transform="translate(1333.25 524)"/>
<path fill-rule="evenodd" clip-rule="evenodd" d="M1340.28 538.091C1344.16 538.091 1347.31 534.937 1347.31 531.045C1347.31 527.154 1344.16 524 1340.28 524C1336.4 524 1333.25 527.154 1333.25 531.045C1333.25 534.937 1336.4 538.091 1340.28 538.091Z" fill="white" fill-opacity="0.2"/>
<path fill-rule="evenodd" clip-rule="evenodd" d="M1358.09 542.788C1361.98 542.788 1365.12 539.634 1365.12 535.742C1365.12 531.851 1361.98 528.697 1358.09 528.697C1354.21 528.697 1351.06 531.851 1351.06 535.742C1351.06 539.634 1354.21 542.788 1358.09 542.788Z" fill="white" fill-opacity="0.6"/>
<path fill-rule="evenodd" clip-rule="evenodd" d="M1375.91 547.485C1379.79 547.485 1382.94 544.331 1382.94 540.439C1382.94 536.548 1379.79 533.394 1375.91 533.394C1372.02 533.394 1368.88 536.548 1368.88 540.439C1368.88 544.331 1372.02 547.485 1375.91 547.485Z" fill="white"/>
</g>
</svg>
